icons/reason.svg

<svg height="216" viewBox="0 0 578 216" width="578" xmlns="http://www.w3.org/2000/svg"><g fill="none" fill-rule="evenodd"><path d="m0 0h216v216h-216z" fill="#000" fill-rule="nonzero"/><path d="m0 0h216v216h-216z" fill="#dd4b39"/><path d="m.5.5h215v215h-215z" stroke="#d74837"/><path d="m288.086 197-5.664-14.632h-35.754l-5.782 14.632h-22.184l35.518-82.718h22.184l34.692 82.718zm-34.928-31.152h22.892l-11.328-29.5zm126.012-26.078c-8.732-4.956-19.824-8.85-26.668-8.85-5.192 0-8.614 1.888-8.614 5.664 0 13.688 43.542 5.9 43.542 35.636 0 16.874-14.868 25.488-33.276 25.488-13.806 0-28.202-5.074-38.114-13.216l8.378-16.874c8.496 7.316 21.358 12.508 29.972 12.508 6.372 0 10.384-2.36 10.384-6.726 0-14.042-43.542-5.546-43.542-34.81 0-15.458 13.098-25.252 33.04-25.252 12.154 0 24.426 3.776 33.04 9.322zm62.646-26.078c25.606 0 44.722 17.936 44.722 41.89 0 24.19-19.116 42.362-44.722 42.362s-44.722-18.172-44.722-42.362c0-24.072 19.116-41.89 44.722-41.89zm.236 18.408c-12.39 0-22.774 10.148-22.774 23.6s10.502 23.836 22.774 23.836c12.39 0 22.302-10.384 22.302-23.836s-9.912-23.6-22.302-23.6zm59.224-17.818h18.998l37.524 49.796v-49.796h20.06v82.718h-18.88l-37.524-49.56v49.56h-20.178z" fill="#333" fill-rule="nonzero"/><g transform="translate(54 114)"><path d="m74.128 83h-24.426l-12.036-22.892h-16.048v22.892h-21.594v-82.718h37.17c21.948 0 34.456 10.62 34.456 29.028 0 12.508-5.192 21.712-14.75 26.668zm-52.51-65.49v25.37h15.694c8.732 0 13.806-4.484 13.806-12.862 0-8.142-5.074-12.508-13.806-12.508zm63.838-17.228h65.254v17.228h-43.66v15.458h39.412v17.11l-39.412.118v15.576h44.84v17.228h-66.434z" fill="#fff"/><path d="m74.128 83h-24.426l-12.036-22.892h-16.048v22.892h-21.594v-82.718h37.17c21.948 0 34.456 10.62 34.456 29.028 0 12.508-5.192 21.712-14.75 26.668zm-52.51-65.49v25.37h15.694c8.732 0 13.806-4.484 13.806-12.862 0-8.142-5.074-12.508-13.806-12.508zm63.838-17.228h65.254v17.228h-43.66v15.458h39.412v17.11l-39.412.118v15.576h44.84v17.228h-66.434z" fill="#000" fill-rule="nonzero"/></g></g></svg>

<?xml version="1.0" encoding="UTF-8"?>
<svg width="578px" height="216px" viewBox="0 0 578 216" version="1.1" xmlns="http://www.w3.org/2000/svg" xmlns:xlink="http://www.w3.org/1999/xlink">
    <!-- Generator: Sketch 56.2 (81672) - https://sketch.com -->
    <title>reason</title>
    <desc>Created with Sketch.</desc>
    <g id="Page-1" stroke="none" stroke-width="1" fill="none" fill-rule="evenodd">
        <g id="reason">
            <g id="Rectangle-1">
                <g id="path-1-link" fill="#000000" fill-rule="nonzero">
                    <rect id="path-1" x="0" y="0" width="216" height="216"></rect>
                </g>
                <g id="path-1-link" fill="#DD4B39">
                    <rect id="path-1" x="0" y="0" width="216" height="216"></rect>
                </g>
                <rect id="Rectangle" stroke="#D74837" x="0.5" y="0.5" width="215" height="215"></rect>
            </g>
            <path d="M288.086,197 L282.422,182.368 L246.668,182.368 L240.886,197 L218.702,197 L254.22,114.282 L276.404,114.282 L311.096,197 L288.086,197 Z M253.158,165.848 L276.05,165.848 L264.722,136.348 L253.158,165.848 Z M379.17,139.77 C370.438,134.814 359.346,130.92 352.502,130.92 C347.31,130.92 343.888,132.808 343.888,136.584 C343.888,150.272 387.43,142.484 387.43,172.22 C387.43,189.094 372.562,197.708 354.154,197.708 C340.348,197.708 325.952,192.634 316.04,184.492 L324.418,167.618 C332.914,174.934 345.776,180.126 354.39,180.126 C360.762,180.126 364.774,177.766 364.774,173.4 C364.774,159.358 321.232,167.854 321.232,138.59 C321.232,123.132 334.33,113.338 354.272,113.338 C366.426,113.338 378.698,117.114 387.312,122.66 L379.17,139.77 Z M441.816,113.692 C467.422,113.692 486.538,131.628 486.538,155.582 C486.538,179.772 467.422,197.944 441.816,197.944 C416.21,197.944 397.094,179.772 397.094,155.582 C397.094,131.51 416.21,113.692 441.816,113.692 Z M442.052,132.1 C429.662,132.1 419.278,142.248 419.278,155.7 C419.278,169.152 429.78,179.536 442.052,179.536 C454.442,179.536 464.354,169.152 464.354,155.7 C464.354,142.248 454.442,132.1 442.052,132.1 Z M501.276,114.282 L520.274,114.282 L557.798,164.078 L557.798,114.282 L577.858,114.282 L577.858,197 L558.978,197 L521.454,147.44 L521.454,197 L501.276,197 L501.276,114.282 Z" id="[]ASON" fill="#333333" fill-rule="nonzero"></path>
            <g id="[RE]ASON" transform="translate(54.000000, 114.000000)">
                <g id="path-3-link" fill="#FFFFFF">
                    <path d="M74.128,83 L49.702,83 L37.666,60.108 L21.618,60.108 L21.618,83 L0.024,83 L0.024,0.282 L37.194,0.282 C59.142,0.282 71.65,10.902 71.65,29.31 C71.65,41.818 66.458,51.022 56.9,55.978 L74.128,83 Z M21.618,17.51 L21.618,42.88 L37.312,42.88 C46.044,42.88 51.118,38.396 51.118,30.018 C51.118,21.876 46.044,17.51 37.312,17.51 L21.618,17.51 Z M85.456,0.282 L150.71,0.282 L150.71,17.51 L107.05,17.51 L107.05,32.968 L146.462,32.968 L146.462,50.078 L107.05,50.196 L107.05,65.772 L151.89,65.772 L151.89,83 L85.456,83 L85.456,0.282 Z" id="path-3"></path>
                </g>
                <g id="path-3-link" fill="#000000" fill-rule="nonzero">
                    <path d="M74.128,83 L49.702,83 L37.666,60.108 L21.618,60.108 L21.618,83 L0.024,83 L0.024,0.282 L37.194,0.282 C59.142,0.282 71.65,10.902 71.65,29.31 C71.65,41.818 66.458,51.022 56.9,55.978 L74.128,83 Z M21.618,17.51 L21.618,42.88 L37.312,42.88 C46.044,42.88 51.118,38.396 51.118,30.018 C51.118,21.876 46.044,17.51 37.312,17.51 L21.618,17.51 Z M85.456,0.282 L150.71,0.282 L150.71,17.51 L107.05,17.51 L107.05,32.968 L146.462,32.968 L146.462,50.078 L107.05,50.196 L107.05,65.772 L151.89,65.772 L151.89,83 L85.456,83 L85.456,0.282 Z" id="path-3"></path>
                </g>
            </g>
        </g>
    </g>
</svg>
